src/standard/software/robot.svg

<svg xmlns="http://www.w3.org/2000/svg" viewBox="0 0 36 36">
  <path d="M15 12.38a.62.62 0 0 0-.61.63.61.61 0 0 0 .61.62.62.62 0 0 0 .63-.62.63.63 0 0 0-.63-.63Zm6 0a.63.63 0 0 0-.62.63.63.63 0 0 0 1.25 0 .63.63 0 0 0-.63-.63Z"/>
  <path d="M30 22.38h-8.38v-1.76H27a.62.62 0 0 0 .62-.62v-6.38H29a.62.62 0 1 0 0-1.24h-1.38V8a.62.62 0 0 0-.62-.62h-5.38V5a.62.62 0 0 0-1.24 0v2.38h-4.76V5a.62.62 0 1 0-1.24 0v2.38H9a.62.62 0 0 0-.62.62v4.38H7a.62.62 0 0 0 0 1.24h1.38V20a.62.62 0 0 0 .62.62h5.38v1.76H6a.62.62 0 0 0-.62.62v8a.62.62 0 0 0 1.24 0v-7.38h22.76V31a.62.62 0 0 0 1.24 0v-8a.62.62 0 0 0-.62-.62ZM9.62 8.62h16.76v10.76H9.62Zm6 12h4.76v1.76h-4.76Z"/>
</svg>

<svg id="a0bdb6d6-52b2-4c57-affe-ae51e6d8c6bf" data-name="Icon" xmlns="http://www.w3.org/2000/svg" viewBox="0 0 36 36">
  <g>
    <path d="M15,12.38a.62.62,0,0,0-.61.63.61.61,0,0,0,.61.62.62.62,0,0,0,.63-.62A.63.63,0,0,0,15,12.38Z"/>
    <path d="M21,12.38a.63.63,0,0,0-.62.63.63.63,0,0,0,1.25,0A.63.63,0,0,0,21,12.38Z"/>
    <path d="M30,22.38H21.62V20.62H27a.62.62,0,0,0,.62-.62V13.62H29a.62.62,0,1,0,0-1.24H27.62V8A.62.62,0,0,0,27,7.38H21.62V5a.62.62,0,0,0-1.24,0V7.38H15.62V5a.62.62,0,1,0-1.24,0V7.38H9A.62.62,0,0,0,8.38,8v4.38H7a.62.62,0,0,0,0,1.24H8.38V20a.62.62,0,0,0,.62.62h5.38v1.76H6a.62.62,0,0,0-.62.62v8a.62.62,0,0,0,1.24,0V23.62H29.38V31a.62.62,0,0,0,1.24,0V23A.62.62,0,0,0,30,22.38ZM9.62,8.62H26.38V19.38H9.62Zm6,12h4.76v1.76H15.62Z"/>
  </g>
</svg>
